<?xml version="1.0" encoding="UTF-8"?>
<map version="1.10" tiledversion="1.12.2" orientation="orthogonal" renderorder="right-down" width="30" height="20" tilewidth="32" tileheight="32" infinite="0" nextlayerid="5" nextobjectid="2">
 <tileset firstgid="1" source="Terrain (32x32).tsx"/>
 <tileset firstgid="248" source="Decorations (32x32).tsx"/>
 <layer id="3" name="background" width="30" height="20" locked="1">
  <data encoding="csv">
0,0,0,0,0,0,0,0,0,0,0,0,0,0,0,0,0,0,0,0,0,0,0,0,0,41,41,41,41,0,
0,0,0,0,41,41,41,41,41,41,0,0,0,0,0,0,0,0,0,0,0,41,41,41,41,41,0,41,41,0,
0,41,41,41,41,41,41,41,41,41,27,28,41,41,41,41,41,41,41,41,41,41,41,27,28,41,41,41,41,0,
41,41,27,28,41,41,41,41,41,41,46,47,41,41,41,41,41,41,41,27,28,41,41,46,47,41,27,28,41,41,
0,41,46,47,41,41,41,41,41,41,41,41,41,41,41,41,41,41,41,46,47,41,21,41,23,41,46,47,41,0,
0,41,41,41,41,41,41,41,41,41,41,41,41,41,41,41,0,0,41,41,41,41,40,41,42,41,41,41,41,0,
41,27,28,41,41,41,41,41,41,41,41,41,41,41,41,41,41,41,0,41,41,41,59,41,61,41,21,0,23,0,
41,46,47,41,41,41,41,41,41,27,28,41,41,41,41,41,41,27,28,41,27,28,41,41,41,41,40,0,42,0,
41,41,41,41,27,28,41,41,41,46,47,41,41,41,41,41,41,46,47,41,46,47,41,41,41,41,59,41,61,41,
41,41,27,28,46,47,41,27,28,41,41,41,41,41,27,28,41,41,41,41,41,41,21,41,23,41,41,41,41,0,
41,41,46,47,41,41,41,46,47,41,27,28,41,41,46,47,41,27,28,41,41,41,40,41,42,41,41,41,41,0,
0,41,41,27,28,41,41,27,28,41,46,47,41,27,28,41,41,46,47,41,41,41,59,41,61,41,41,41,41,0,
41,41,41,46,47,41,41,46,47,41,41,41,41,46,47,41,41,41,41,27,28,41,41,41,41,41,21,41,23,41,
41,27,28,41,41,41,27,28,41,41,41,27,28,41,41,27,28,41,41,46,47,41,41,41,41,41,40,41,42,0,
41,46,47,27,28,41,46,47,41,41,41,46,47,41,41,46,47,41,41,41,41,41,21,41,23,41,59,41,61,0,
41,41,41,46,47,41,41,41,41,41,41,41,41,41,41,41,41,41,41,41,41,41,40,41,42,41,41,41,41,41,
41,41,41,41,41,41,41,41,41,41,41,41,41,41,41,41,41,41,41,41,41,41,59,41,61,41,41,41,41,0,
0,41,41,41,41,41,41,41,41,41,41,41,41,41,41,41,41,41,41,41,41,41,41,41,41,41,41,41,41,41,
0,0,0,41,41,41,41,41,0,0,0,41,41,41,41,41,41,41,0,0,0,0,0,0,0,0,41,41,41,41,
0,0,0,41,41,0,0,0,0,0,0,0,41,41,0,0,0,0,0,0,0,0,0,0,0,0,0,0,41,41
</data>
 </layer>
 <objectgroup id="4" name="objects" locked="1">
  <object id="1" name="levelSpawn" type="levelSpawn" x="75.2204" y="502.789">
   <point/>
  </object>
 </objectgroup>
 <layer id="1" name="floor" width="30" height="20" locked="1">
  <data encoding="csv">
0,0,0,0,0,0,0,0,0,0,0,0,0,0,0,0,0,0,0,0,0,0,0,0,0,0,0,0,0,0,
0,0,0,0,0,0,0,0,0,0,0,0,0,0,0,0,0,0,0,0,0,0,0,0,0,0,0,0,0,0,
0,0,0,0,0,0,0,0,0,0,0,0,0,0,0,0,0,0,0,0,0,0,0,0,0,0,0,0,0,0,
0,0,0,0,0,0,0,0,0,0,0,0,0,0,0,0,0,0,0,0,0,0,0,0,0,0,0,0,0,0,
0,0,0,0,0,21,22,23,0,0,0,0,0,0,0,0,21,22,23,0,0,0,0,22,0,0,0,0,0,0,
0,0,0,0,0,40,41,42,0,0,0,0,0,0,0,0,40,41,42,0,0,0,0,41,0,0,0,0,0,0,
0,0,0,0,0,59,60,61,0,101,0,101,0,101,0,0,59,60,61,0,0,0,0,60,0,0,0,22,0,0,
0,0,0,0,0,0,0,0,0,0,0,0,0,0,0,0,0,0,0,0,0,0,0,0,0,0,0,41,0,0,
0,0,0,0,0,0,0,0,0,0,0,0,0,0,0,0,0,0,0,0,0,0,0,0,0,0,0,60,0,0,
0,0,0,0,0,0,0,0,0,0,0,0,0,0,0,0,0,0,0,0,0,0,0,22,0,0,0,0,0,0,
0,0,0,0,0,0,0,0,0,0,0,0,0,0,0,0,0,0,0,0,0,0,0,41,0,0,0,0,0,0,
0,0,0,0,0,0,0,0,0,0,0,0,0,0,0,0,0,0,0,0,0,0,0,60,0,0,0,0,0,0,
0,0,0,0,0,0,0,0,0,0,0,0,0,0,0,0,0,0,0,0,0,0,0,0,0,0,0,22,0,0,
0,0,0,0,0,0,0,0,0,0,0,0,0,0,0,0,0,0,0,0,0,0,0,0,0,0,0,41,0,0,
0,0,0,0,0,0,0,0,0,0,0,0,0,0,0,0,0,0,0,0,0,0,0,22,0,0,0,60,0,0,
0,0,0,0,0,0,0,0,0,0,0,0,0,0,0,0,0,0,0,0,0,0,0,41,0,0,0,0,0,0,
0,0,0,0,0,0,0,0,0,0,0,0,97,98,98,98,2147483746,98,98,2147483746,2147483745,0,0,60,0,0,0,0,0,0,
0,97,98,99,0,0,0,97,98,99,0,0,0,0,0,0,0,0,0,0,0,0,0,0,0,0,0,0,0,0,
21,22,22,22,22,22,22,22,22,22,22,22,22,22,22,22,22,22,22,22,22,22,22,22,22,22,22,22,22,23,
2147483690,41,41,41,41,41,41,41,41,41,41,41,41,41,41,41,41,41,41,41,41,41,41,41,41,41,41,41,41,42
</data>
 </layer>
 <layer id="2" name="walls" width="30" height="20" locked="1">
  <data encoding="csv">
139,84,85,84,85,84,85,84,85,84,85,84,85,84,85,84,85,84,85,84,85,84,85,84,85,84,85,84,85,177,
139,103,104,103,104,103,104,103,104,103,104,103,104,103,104,103,104,103,104,103,104,103,104,103,104,103,104,103,104,177,
139,0,0,0,0,0,0,0,0,0,0,0,0,0,0,0,0,0,0,0,0,0,0,0,0,0,0,0,0,177,
139,0,0,0,0,0,0,0,0,0,0,0,0,0,0,0,0,0,0,0,0,0,0,0,0,0,0,0,0,177,
139,0,0,0,0,0,0,0,0,0,0,0,0,0,0,0,0,0,0,0,0,0,0,0,0,0,0,0,0,177,
139,0,0,0,0,0,0,0,0,0,0,0,0,0,0,0,0,0,0,0,0,0,0,0,0,0,0,0,0,177,
139,0,0,0,0,0,0,0,0,0,0,0,0,0,0,0,0,0,0,0,0,0,0,0,0,0,0,0,0,177,
139,0,0,0,0,0,0,0,0,0,0,0,0,0,0,0,0,0,0,0,0,0,0,0,0,0,0,0,0,177,
139,0,0,0,0,0,0,0,0,0,0,0,0,0,0,0,0,0,0,0,0,0,0,0,0,0,0,0,0,177,
139,0,0,0,0,0,0,0,0,0,0,0,0,0,0,0,0,0,0,0,0,0,0,0,0,0,0,0,0,177,
139,0,0,0,0,0,0,0,0,0,0,0,0,0,0,0,0,0,0,0,0,0,0,0,0,0,0,0,0,177,
139,0,0,0,0,0,0,0,0,0,0,0,0,0,0,0,0,0,0,0,0,0,0,0,0,0,0,0,0,177,
139,0,0,0,0,0,0,0,0,0,0,0,0,0,0,0,0,0,0,0,0,0,0,0,0,0,0,0,0,177,
139,0,0,0,0,0,0,0,0,0,0,0,0,0,0,0,0,0,0,0,0,0,0,0,0,0,0,0,0,177,
139,0,0,0,0,0,0,0,0,0,0,0,0,0,0,0,0,0,0,0,0,0,0,0,0,0,0,0,0,177,
139,0,0,0,0,0,0,0,0,0,0,0,0,0,0,0,0,0,0,0,0,0,0,0,0,0,0,0,0,177,
139,0,0,0,0,0,0,0,0,0,0,0,0,0,0,0,0,0,0,0,0,0,0,0,0,0,0,0,0,177,
139,0,0,0,0,0,0,0,0,0,0,0,0,0,0,0,0,0,0,0,0,0,0,0,0,0,0,0,0,177,
139,0,0,0,0,0,0,0,0,0,0,0,0,0,0,0,0,0,0,0,0,0,0,0,0,0,0,0,0,177,
158,0,0,0,0,0,0,0,0,0,0,0,0,0,0,0,0,0,0,0,0,0,0,0,0,0,0,0,0,177
</data>
 </layer>
</map>
